svgs/sharp-solid/butter.svg

<svg xmlns="http://www.w3.org/2000/svg" viewBox="0 0 640 512"><!--! Font Awesome Pro 6.6.0 by @fontawesome - https://fontawesome.com License - https://fontawesome.com/license (Commercial License) Copyright 2024 Fonticons, Inc. --><path d="M64 64l384 0 0 224L64 288 64 64zM32 320l576 0 32 0 0 64-32 0 0 64L32 448l0-64L0 384l0-64 32 0zM576 64l0 224-96 0 0-224 96 0z"/></svg>

<svg xmlns="http://www.w3.org/2000/svg" viewBox="0 0 640 512"><!--! Font Awesome Pro 6.4.0 by @fontawesome - https://fontawesome.com License - https://fontawesome.com/license (Commercial License) Copyright 2023 Fonticons, Inc. --><path d="M64 64H448V288H64V64zM32 320H608h32v64H608v64H32V384H0V320H32zM576 64V288H480V64h96z"/></svg>
